X: 5
T: The Butlers Of Glen Avenue
R: jig
M: 6/8
L: 1/8
K: Gmaj
DEG EDB,| DEG B_B=B |DEG ~B2e| dBe dBA|
~G3 EDB,| DEG B_B=B |dBd ~g3|1 dBA ~G3:|2 dBA GBd|
|:gz b age|deg ~B3|gab gab| ~d3 egd|
gz b age|deg ~B3 |dB/c/d gfe|1 dBA GBd:|2 dBA ~G3|]


Tune 820	Setting 13972

